X: 1
T: A Morning In Summer
R: jig
M: 6/8
L: 1/8
K: Dmaj
|:A|A2DD2E|F2EF2D|G2FG2A|d2cA2G|
A2DD2E|F2EF2D|D2GF2G|A2GG2:|
G|:F2GA2B|=c3AB^c|d2cd2e|=f2dd2e|
=f2ef2d|=c2AA2F|G2FG2A|d2cA2G:|
